X: 43068
T: Wind That Shakes The Barley, The
R: reel
M: 4/4
K: Eminor
F2|G2F2E2F2|G2F2E2F2|G2G2G2B2|A2F2D2F2|
G2F2G2A2|B2c2B2A2|G2E2F2D2|E2E2F4|
G2F2G2A2|B2c2B2A2|G2F2G2A2|B2E2E2F2|
G2F2G2A2|B2c2B2A2|G2E2F2D2|E2E2E2||

